contributed-vectors/cinematics.svg

<svg xmlns="http://www.w3.org/2000/svg" viewBox="0 0 192 192"><path fill="#6FDD98" d="M153.9 0h-113c-7.2 0-13.1 5.9-13.1 13.1v165.8c0 7.2 5.9 13.1 13.1 13.1h113c7.2 0 13.1-5.9 13.1-13.1V13.1C166.9 5.9 161.1 0 153.9 0zM57.5 178.9H40.2v-18.3h17.3v18.3zm0-36H40.2v-18.3h17.3v18.3zm0-37.7H40.2V86.8h17.3v18.4zm0-36.2H40.2V50.6h17.3V69zm0-37.7H40.2V12.9h17.3v18.4zm96.1 147.6h-17.3v-18.3h17.3v18.3zm0-36h-17.3v-18.3h17.3v18.3zm0-37.2h-17.3V87.3h17.3v18.4zm0-36.7h-17.3V50.6h17.3V69zm0-37.7h-17.3V12.9h17.3v18.4z"/></svg>

<?xml version="1.0" encoding="utf-8"?>
<!-- Generator: Adobe Illustrator 17.1.0, SVG Export Plug-In . SVG Version: 6.00 Build 0)  -->
<!DOCTYPE svg PUBLIC "-//W3C//DTD SVG 1.1//EN" "http://www.w3.org/Graphics/SVG/1.1/DTD/svg11.dtd">
<svg version="1.1" id="Слой_1" xmlns="http://www.w3.org/2000/svg" xmlns:xlink="http://www.w3.org/1999/xlink" x="0px" y="0px"
	 viewBox="0 0 192 192" enable-background="new 0 0 192 192" xml:space="preserve">
<path fill="#6FDD98" d="M153.9,0h-113c-7.2,0-13.1,5.9-13.1,13.1v165.8c0,7.2,5.9,13.1,13.1,13.1h113c7.2,0,13.1-5.9,13.1-13.1V13.1
	C166.9,5.9,161.1,0,153.9,0z M57.5,178.9H40.2v-18.3h17.3V178.9z M57.5,142.9H40.2v-18.3h17.3V142.9z M57.5,105.2H40.2V86.8h17.3
	V105.2z M57.5,69H40.2V50.6h17.3V69z M57.5,31.3H40.2V12.9h17.3V31.3z M153.6,178.9h-17.3v-18.3h17.3V178.9z M153.6,142.9h-17.3
	v-18.3h17.3V142.9z M153.6,105.7h-17.3V87.3h17.3V105.7z M153.6,69h-17.3V50.6h17.3V69z M153.6,31.3h-17.3V12.9h17.3V31.3z"/>
</svg>
